src/assets/icons/facebook.svg

<svg width="100%" height="100%" viewBox="0 0 22 22" fill="none" xmlns="http://www.w3.org/2000/svg">
<path d="M11.0001 0.0467834C4.92496 0.0467834 0 4.97174 0 11.0468C0 16.4955 3.96574 21.0079 9.16548 21.8817V13.3418H6.51194V10.2686H9.16548V8.00254C9.16548 5.37328 10.7713 3.94048 13.1172 3.94048C14.2407 3.94048 15.2062 4.0242 15.4865 4.06107V6.80935L13.8595 6.81014C12.584 6.81014 12.3381 7.41611 12.3381 8.30566V10.267H15.3815L14.9846 13.3402H12.3381V21.9552C17.7806 21.2928 22 16.6654 22 11.0437C22 4.97174 17.075 0.0467834 11.0001 0.0467834Z" fill="#444444"/>
</svg>

<svg xmlns="http://www.w3.org/2000/svg" width="100%" height="100%" viewBox="0 0 22 22" fill="none"><path d="M11 .047c-6.075 0-11 4.925-11 11 0 5.449 3.966 9.961 9.165 10.835v-8.54H6.512v-3.073h2.654V8.003c0-2.629 1.606-4.062 3.952-4.062a21.9 21.9 0 0 1 2.369.121v2.748l-1.627.001c-1.276 0-1.521.606-1.521 1.496v1.961h3.043l-.397 3.073h-2.646v8.615A11 11 0 0 0 22 11.044C22 4.972 17.075.047 11 .047z" fill="#444"/></svg>
